_includes/icons/color-drop-down.svg

<svg fill="#666" height="50" viewBox="0 0 48 48" width="50" xmlns="http://www.w3.org/2000/svg"><path d="m6 10c0-2.210937 1.789063-4 4-4h28c2.210938 0 4 1.789063 4 4v28c0 2.210938-1.789062 4-4 4h-28c-2.210937 0-4-1.789062-4-4z" fill="#9c27b0"/><path d="m35.054688 21.019531-3.085938-3.074218-7.96875 7.90625-7.976562-7.914063-3.085938 3.074219 11.0625 10.988281z" fill="#fff"/></svg>

<svg xmlns="http://www.w3.org/2000/svg" viewBox="0 0 48 48" width="50" height="50" fill="#666"><path d="M 6 10 C 6 7.789063 7.789063 6 10 6 L 38 6 C 40.210938 6 42 7.789063 42 10 L 42 38 C 42 40.210938 40.210938 42 38 42 L 10 42 C 7.789063 42 6 40.210938 6 38 Z" fill="#9c27b0"/><path d="M 35.054688 21.019531 L 31.96875 17.945313 L 24 25.851563 L 16.023438 17.9375 L 12.9375 21.011719 L 24 32 Z" fill="#fff"/></svg>
